X: 1
T: The Frost Is All Over
R: jig
M: 6/8
L: 1/8
K: D
"D" def edB | AFD E2D | DFA AFA | "G" Bee "A" edc  |
"D" def edB | AFD E2D | DFA AFA | "A" Bdc "D" d3  :|    
"D" fef agf | "G" gfg bag | "D" fef agf | "A" gfg efg |
"D" fef agf | "G" gfg bag | "D" fga "A" efg | "D" fdc d3 :|



